Yaru++/apps/scalable/aggiungere.svg

<svg fill="none" height="256" viewBox="0 0 256 256" width="256" xmlns="http://www.w3.org/2000/svg" xmlns:xlink="http://www.w3.org/1999/xlink"><linearGradient id="a" gradientUnits="userSpaceOnUse" x1="27.8835" x2="227.884" y1="25.1748" y2="225.175"><stop offset="0" stop-opacity=".588235"/><stop offset="1" stop-opacity=".205556"/></linearGradient><path d="m54.8051 18.1745c-35.2967 0-39.0946 3.6254-38.9216 38.9935v73.006 73.007c-.173 35.368 3.6249 38.993 38.9216 38.993h146.1569c35.297 0 39.89-3.638 38.922-38.993v-73.007-73.006c0-35.3685-3.625-38.9935-38.922-38.9935z" fill="#000" opacity=".1"/><path d="m54.8051 18.1748c-35.2967 0-39.0946 3.6254-38.9216 38.9935v73.0067 73.006c-.173 35.368 3.6249 38.994 38.9216 38.994h146.1569c35.297 0 39.89-3.638 38.922-38.994v-73.006-73.0067c0-35.3685-3.625-38.9935-38.922-38.9935z" fill="url(#a)" opacity=".3"/><path d="m53.6951 15.1745c-36.0988 0-39.983 3.6901-39.8061 39.6898v74.3097 74.311c-.1769 35.999 3.7073 39.689 39.8061 39.689h148.3869c36.099 0 40.775-3.702 39.807-39.689v-74.311-74.3097c0-36.0001-3.708-39.6898-39.807-39.6898z" fill="#000" opacity=".1"/><path d="m54.8051 241.174c-35.2967 0-39.0946-3.625-38.9216-38.993v-73.007-73.006c-.173-35.3681 3.6249-38.9935 38.9216-38.9935h146.1569c35.297 0 38.922 3.625 38.922 38.9935v73.006 73.007c0 35.368-3.625 38.993-38.922 38.993z" fill="#8ec747"/><path d="m118.286 60v61.286h-61.286v20.428h61.286v61.286h20.428v-61.286h61.286v-20.428h-61.286v-61.286z" fill="#000" opacity=".1"/><path d="m118.286 58v61.286h-61.286v20.428h61.286v61.286h20.428v-61.286h61.286v-20.428h-61.286v-61.286z" fill="#f2f2f2"/><path d="m54.8054 17.1745c-35.2967 0-39.0949 3.626-38.9219 38.9941v2c-.173-35.3681 3.6252-38.9941 38.9219-38.9941h146.1566c35.296 0 38.922 3.6256 38.922 38.9941v-2c0-35.3685-3.626-38.9941-38.922-38.9941z" fill="#fff" opacity=".3"/><path d="m54.8108 241.174c-35.2967 0-39.0949-3.626-38.9219-38.994v-2c-.173 35.368 3.6252 38.994 38.9219 38.994h146.1562c35.297 0 38.922-3.625 38.922-38.994v2c0 35.369-3.625 38.994-38.922 38.994z" fill="#000" opacity=".2"/></svg>

<svg width="256" height="256" viewBox="0 0 256 256" fill="none" xmlns="http://www.w3.org/2000/svg">
<path opacity="0.1" d="M54.8051 18.1745C19.5084 18.1745 15.7105 21.7999 15.8835 57.168V130.174V203.181C15.7105 238.549 19.5084 242.174 54.8051 242.174H200.962C236.259 242.174 240.852 238.536 239.884 203.181V130.174V57.168C239.884 21.7995 236.259 18.1745 200.962 18.1745H54.8051Z" fill="black"/>
<path opacity="0.3" d="M54.8051 18.1748C19.5084 18.1748 15.7105 21.8002 15.8835 57.1683V130.175V203.181C15.7105 238.549 19.5084 242.175 54.8051 242.175H200.962C236.259 242.175 240.852 238.537 239.884 203.181V130.175V57.1683C239.884 21.7998 236.259 18.1748 200.962 18.1748H54.8051Z" fill="url(#paint0_linear)"/>
<path opacity="0.1" d="M53.6951 15.1745C17.5963 15.1745 13.7121 18.8646 13.889 54.8643V129.174V203.485C13.7121 239.484 17.5963 243.174 53.6951 243.174H202.082C238.181 243.174 242.857 239.472 241.889 203.485V129.174V54.8643C241.889 18.8642 238.181 15.1745 202.082 15.1745H53.6951Z" fill="black"/>
<path d="M54.8051 241.174C19.5084 241.174 15.7105 237.549 15.8835 202.181V129.174V56.168C15.7105 20.7999 19.5084 17.1745 54.8051 17.1745H200.962C236.259 17.1745 239.884 20.7995 239.884 56.168V129.174V202.181C239.884 237.549 236.259 241.174 200.962 241.174H54.8051Z" fill="#8EC747"/>
<path opacity="0.1" d="M118.286 60V121.286H57V141.714H118.286V203H138.714V141.714H200V121.286H138.714V60H118.286Z" fill="black"/>
<path d="M118.286 58V119.286H57V139.714H118.286V201H138.714V139.714H200V119.286H138.714V58H118.286Z" fill="#F2F2F2"/>
<path opacity="0.3" d="M54.8054 17.1745C19.5087 17.1745 15.7105 20.8005 15.8835 56.1686V58.1686C15.7105 22.8005 19.5087 19.1745 54.8054 19.1745H200.962C236.258 19.1745 239.884 22.8001 239.884 58.1686V56.1686C239.884 20.8001 236.258 17.1745 200.962 17.1745H54.8054Z" fill="white"/>
<path opacity="0.2" d="M54.8108 241.174C19.5141 241.174 15.7159 237.548 15.8889 202.18V200.18C15.7159 235.548 19.5141 239.174 54.8108 239.174H200.967C236.264 239.174 239.889 235.549 239.889 200.18V202.18C239.889 237.549 236.264 241.174 200.967 241.174H54.8108Z" fill="black"/>
<defs>
<linearGradient id="paint0_linear" x1="27.8835" y1="25.1748" x2="227.884" y2="225.175" gradientUnits="userSpaceOnUse">
<stop stop-opacity="0.588235"/>
<stop offset="1" stop-opacity="0.205556"/>
</linearGradient>
</defs>
</svg>
